src/images/Nutanix/Process2.svg

<svg fill="none" height="211" viewBox="0 0 211 211" width="211" xmlns="http://www.w3.org/2000/svg"><rect fill="#ec8539" height="211" rx="20" width="211"/><path d="m87.25 161.25c0 3.438 2.8125 6.25 6.25 6.25h25c3.438 0 6.25-2.812 6.25-6.25v-6.25h-37.5zm18.75-118.75c-24.125 0-43.75 19.625-43.75 43.75 0 14.875 7.4375 27.938 18.75 35.875v14.125c0 3.438 2.8125 6.25 6.25 6.25h37.5c3.438 0 6.25-2.812 6.25-6.25v-14.125c11.313-7.937 18.75-21 18.75-35.875 0-24.125-19.625-43.75-43.75-43.75zm17.813 69.375-5.313 3.75v14.375h-25v-14.375l-5.3125-3.75c-4.1407-2.871-7.5254-6.7-9.8653-11.162-2.3399-4.4626-3.5655-9.4246-3.5722-14.463 0-17.25 14-31.25 31.25-31.25s31.25 14 31.25 31.25c0 10.1875-5 19.75-13.437 25.625z" fill="#fbfbfb"/></svg>

<svg width="211" height="211" viewBox="0 0 211 211" fill="none" xmlns="http://www.w3.org/2000/svg">
<path d="M191 0H20C8.9543 0 0 8.9543 0 20V191C0 202.046 8.9543 211 20 211H191C202.046 211 211 202.046 211 191V20C211 8.9543 202.046 0 191 0Z" fill="#034EA2"/>
<path d="M87.25 161.25C87.25 164.688 90.0625 167.5 93.5 167.5H118.5C121.938 167.5 124.75 164.688 124.75 161.25V155H87.25V161.25ZM106 42.5C81.875 42.5 62.25 62.125 62.25 86.25C62.25 101.125 69.6875 114.188 81 122.125V136.25C81 139.688 83.8125 142.5 87.25 142.5H124.75C128.188 142.5 131 139.688 131 136.25V122.125C142.313 114.188 149.75 101.125 149.75 86.25C149.75 62.125 130.125 42.5 106 42.5ZM123.813 111.875L118.5 115.625V130H93.5V115.625L88.1875 111.875C84.0468 109.004 80.6621 105.175 78.3222 100.713C75.9823 96.2504 74.7567 91.2884 74.75 86.25C74.75 69 88.75 55 106 55C123.25 55 137.25 69 137.25 86.25C137.25 96.4375 132.25 106 123.813 111.875Z" fill="#FBFBFB"/>
</svg>
